X:1
T:Canary Wharf, 11.10.11.10
T:Canary Wharf, 11.10.11.10
T:Anonymous, before 1922
T:Public Domain Courtesy of the Cyber Hymnal™
C:Anonymous, before 1922
Z:Public Domain
Z:Courtesy of the Cyber Hymnal™
%%score ( 1 2 ) ( 3 4 )
L:1/8
Q:1/4=95
M:4/4
K:Ab
V:1 treble 
V:2 treble 
V:3 bass 
V:4 bass 
V:1
 [EA]2 [EA]>[EA] [EA]2 E>[EA] | [Ec]2 [Ec]>[Ec] ([Ec]>[DB]) [CA]2 | [Ae]2 [Ae]>[Ae] [Ae]2 [Ac]>A | %3
 [Ac]2 [AB]>[AB] [GB]4 | [Gd]2 [Gd]>[Gd] [Gd]2 [GB]>[Gd] | [Ec]2 [Ec]>[Ec] [Ec]>[DB] [CA]2 | %6
 [FB]2 [FB]>[FB] (BG)E[EG] | [DB]2 [CA]>[CA] !fermata![CA]4 |] %8
V:2
 x6 E3/2 x/ | x8 | x15/2 A/ | x8 | x8 | x8 | x4 E2 E x | x8 |] %8
V:3
 [A,C]2 [A,C]>[A,C] C2 [C,C]>[A,,C] | [A,,A,]2 [A,,A,]>[A,,A,] [A,,A,]2 [A,,E,]2 | %2
 [A,C]2 [A,C]>[A,C] [A,C]2 [A,E]>[A,C] | [F,=D]2 [B,D]>[B,D] [E,E]4 | %4
 [E,B,]2 [E,B,]>[E,B,] [E,B,]2 [E,D]>[E,B,] | A,2 [A,,A,]>[A,,A,] [A,,A,]2 [A,,E,]2 | %6
 [D,F,]2 [D,B,]>[D,B,] (G,B,)[E,D][E,B,] | [E,G,]2 [A,,A,]>[A,,E,] !fermata![A,,E,]4 |] %8
V:4
 x4 (A,E,) x2 | x8 | x8 | x8 | x8 | A,2 x6 | x4 E,2 x2 | x8 |] %8

